Newaita-dark/apps/48/QtAV.svg

<svg height="48" viewBox="0 0 48 48" width="48" xmlns="http://www.w3.org/2000/svg" xmlns:xlink="http://www.w3.org/1999/xlink"><linearGradient id="a"><stop offset="0" stop-opacity=".313726"/><stop offset=".222222" stop-opacity=".27451"/><stop offset="1" stop-opacity="0"/></linearGradient><radialGradient id="b" cx="450.908936" cy="189.579361" gradientTransform="matrix(.00000026 -.117199 -.210958 -.00000015 66.784728 95.392994)" gradientUnits="userSpaceOnUse" r="21.166656" xlink:href="#a"/><radialGradient id="c" cx="450.908936" cy="189.579361" gradientTransform="matrix(-.00000026 .117199 .210958 .00000015 -19.155178 -11.291223)" gradientUnits="userSpaceOnUse" r="21.166656" xlink:href="#a"/><radialGradient id="d" cx="450.908936" cy="189.579361" gradientTransform="matrix(-.00000026 -.117199 .210958 -.00000015 -19.155178 95.392994)" gradientUnits="userSpaceOnUse" r="21.166656" xlink:href="#a"/><radialGradient id="e" cx="450.908936" cy="189.579361" gradientTransform="matrix(.00000026 .117199 -.210958 .00000015 66.784725 -11.291224)" gradientUnits="userSpaceOnUse" r="21.166656" xlink:href="#a"/><linearGradient id="f" gradientTransform="matrix(.0200401 0 0 .093759 18.698079 20.158175)" gradientUnits="userSpaceOnUse" x1="255.323059" x2="255.323044" y1="233.5" y2="254.666656"><stop offset="0" stop-opacity=".27451"/><stop offset="1" stop-opacity="0"/></linearGradient><linearGradient id="g"><stop offset="0" stop-color="#4db6ac"/><stop offset="1" stop-color="#26a69a"/></linearGradient><linearGradient id="h" gradientUnits="userSpaceOnUse" x1="23.814786" x2="23.814786" xlink:href="#g" y1="4.20156649995" y2="41.9083115"/><linearGradient id="i" gradientUnits="userSpaceOnUse" x1="25.23191124239" x2="25.23191124239" y1="8.21123019239" y2="37.130016"><stop offset="0" stop-color="#e0e0e0"/><stop offset="1" stop-color="#eee"/></linearGradient><linearGradient id="j" gradientUnits="userSpaceOnUse" x1="27.78391746893" x2="27.78391746893" xlink:href="#g" y1="13.27470019329" y2="30.14350734958"/><path d="m27.289062 42.050781h3.96875v-1.984375h-3.96875zm0 0" fill="url(#b)"/><path d="m20.339844 42.050781h-3.96875v1.984375h3.96875zm0 0" fill="url(#c)"/><path d="m20.339844 42.050781h-3.96875v-1.984375h3.96875zm0 0" fill="url(#d)"/><path d="m27.289062 42.050781h3.96875v1.984375h-3.96875zm0 0" fill="url(#e)"/><path d="m20.339844 41.554688h6.949218v2.480468h-6.949218zm0 0" fill="url(#f)"/><path d="m23.816406 4.203125c10.410156 0 18.851563 8.4375 18.851563 18.851563 0 10.414062-8.441407 18.855468-18.851563 18.855468-10.414062 0-18.855468-8.441406-18.855468-18.855468 0-10.414063 8.441406-18.851563 18.855468-18.851563zm0 0" fill="url(#h)"/><path d="m23.816406 41.804688c-10.445312 0-18.855468-8.410157-18.855468-18.855469 0-.0625 0-.121094 0-.183594.101562 10.359375 8.472656 18.667969 18.855468 18.667969 10.382813 0 18.753906-8.308594 18.851563-18.667969v.183594c0 10.445312-8.410157 18.855469-18.851563 18.855469zm0 0" fill-opacity=".196078"/><path d="m23.816406 4.34375c-10.445312 0-18.855468 8.410156-18.855468 18.855469v.183593c.101562-10.359374 8.472656-18.667968 18.855468-18.667968 10.382813 0 18.753906 8.308594 18.851563 18.667968 0-.0625 0-.125 0-.183593 0-10.445313-8.410157-18.855469-18.851563-18.855469zm0 0" fill="#fff" fill-opacity=".392157"/><path d="m23.816406 4.0625c-10.523437 0-18.996094 8.472656-18.996094 18.992188 0 10.519531 8.472657 18.996093 18.996094 18.996093 10.519532 0 18.992188-8.476562 18.992188-18.996093 0-10.519532-8.472656-18.992188-18.992188-18.992188zm0 .28125c10.367188 0 18.710938 8.34375 18.710938 18.710938 0 10.371093-8.34375 18.714843-18.710938 18.714843-10.371094 0-18.714844-8.34375-18.714844-18.714843 0-10.367188 8.34375-18.710938 18.714844-18.710938zm0 0" fill="#212121"/><path d="m25.230469 7.179688c7.988281 0 14.460937 6.472656 14.460937 14.457031 0 7.988281-6.472656 14.460937-14.460937 14.460937-7.984375 0-14.457031-6.472656-14.457031-14.460937 0-7.984375 6.472656-14.457031 14.457031-14.457031zm0 0" fill="url(#i)"/><path d="m22.078125 13.132812c-1.097656 0-1.984375.886719-1.984375 1.984376v12.9375c0 1.101562.886719 1.984374 1.984375 1.984374.992187.003907 9.097656-5.429687 13.644531-8.183593.742188-.496094.742188-.992188 0-1.488281-4.546875-2.410157-12.15625-7.191407-13.644531-7.234376zm0 0" fill="url(#j)"/><path d="m22.078125 13.234375c-1.097656 0-1.984375.886719-1.984375 1.984375v.414062c0-1.101562.886719-1.984374 1.984375-1.984374 1.488281.039062 9.097656 4.820312 13.644531 7.234374.269532.175782.441406.355469.515625.535157.128907-.316407-.039062-.632813-.515625-.949219-4.546875-2.410156-12.15625-7.195312-13.644531-7.234375zm0 0" fill="#fff" fill-opacity=".392157"/><path d="m22.078125 12.992188c-1.175781 0-2.125.953124-2.125 2.125v12.9375c0 1.175781.949219 2.125 2.125 2.125.1875 0 .414063-.09375.746094-.25.328125-.15625.746093-.382813 1.234375-.660157.972656-.550781 2.222656-1.316406 3.582031-2.167969 2.71875-1.703124 5.882813-3.75 8.15625-5.125l.003906-.003906c.390625-.257812.621094-.542968.621094-.859375 0-.320312-.230469-.601562-.621094-.863281l-.007812-.003906-.003907-.003906c-2.269531-1.203126-5.308593-3-7.96875-4.503907-1.328124-.75-2.5625-1.429687-3.558593-1.921875-.5-.246094-.941407-.449218-1.304688-.589844-.367187-.140624-.652343-.226562-.875-.234374zm-.003906.28125c.152343.003906.429687.078124.78125.214843.351562.136719.785156.335938 1.28125.578125.988281.492188 2.21875 1.167969 3.546875 1.917969 2.652344 1.5 5.683594 3.292969 7.960937 4.5.355469.238281.496094.449219.496094.628906 0 .175781-.140625.390625-.496094.625-2.277343 1.378907-5.4375 3.421875-8.152343 5.125-1.359376.847657-2.605469 1.613281-3.574219 2.164063-.480469.273437-.894531.496094-1.214844.648437-.320313.148438-.566406.222657-.625.222657-1.023437 0-1.84375-.820313-1.84375-1.84375v-12.9375c0-1.023438.820313-1.839844 1.839844-1.84375zm0 0" fill="#212121"/><path d="m36.140625 21.585938c-.09375.125-.230469.246093-.417969.371093-4.546875 2.75-12.652344 8.1875-13.644531 8.183594-1.097656 0-1.984375-.886719-1.984375-1.984375v.742188c0 1.101562.886719 1.984374 1.984375 1.984374.992187.003907 9.097656-5.429687 13.644531-8.179687.558594-.375.695313-.746094.417969-1.117187zm0 0" fill-opacity=".235294"/><path d="m25.230469 7.179688c-8.007813 0-14.457031 6.449218-14.457031 14.457031 0 .097656 0 .195312.003906.289062.152344-7.875 6.539062-14.167969 14.453125-14.167969 7.914062 0 14.304687 6.292969 14.457031 14.167969.003906-.09375.003906-.191406.003906-.289062 0-8.007813-6.449218-14.457031-14.460937-14.457031zm0 0" fill-opacity=".235294"/><path d="m25.230469 36.71875c-8.007813 0-14.457031-6.449219-14.457031-14.460938 0-.097656 0-.191406.003906-.289062.152344 7.875 6.539062 14.167969 14.453125 14.167969 7.914062 0 14.304687-6.292969 14.457031-14.167969.003906.097656.003906.191406.003906.289062 0 8.011719-6.449218 14.460938-14.460937 14.460938zm0 0" fill="#fff" fill-opacity=".392157"/><path d="m269.099302-138.423979c85.200197 0 154.235272 69.035074 154.235272 154.193608 0 85.200197-69.035075 154.235272-154.235272 154.235272-85.158534 0-154.193608-69.035075-154.193608-154.235272 0-85.158534 69.035074-154.193608 154.193608-154.193608zm0 0" fill="none" stroke="#212121" stroke-linecap="round" stroke-width="3" transform="matrix(.093759 0 0 .093759 0 20.158175)"/></svg>

<?xml version="1.0" encoding="UTF-8"?>
<svg xmlns="http://www.w3.org/2000/svg" xmlns:xlink="http://www.w3.org/1999/xlink" width="48px" height="48px" viewBox="0 0 48 48" version="1.1">
<defs>
<radialGradient id="radial0" gradientUnits="userSpaceOnUse" cx="450.908936" cy="189.579361" fx="450.908936" fy="189.579361" r="21.166656" gradientTransform="matrix(0.000000261256,-0.117199,-0.210958,-0.000000152308,66.784728,95.392994)">
<stop offset="0" style="stop-color:rgb(0%,0%,0%);stop-opacity:0.313726;"/>
<stop offset="0.222222" style="stop-color:rgb(0%,0%,0%);stop-opacity:0.27451;"/>
<stop offset="1" style="stop-color:rgb(0%,0%,0%);stop-opacity:0;"/>
</radialGradient>
<radialGradient id="radial1" gradientUnits="userSpaceOnUse" cx="450.908936" cy="189.579361" fx="450.908936" fy="189.579361" r="21.166656" gradientTransform="matrix(-0.000000261256,0.117199,0.210958,0.000000152308,-19.155178,-11.291223)">
<stop offset="0" style="stop-color:rgb(0%,0%,0%);stop-opacity:0.313726;"/>
<stop offset="0.222222" style="stop-color:rgb(0%,0%,0%);stop-opacity:0.27451;"/>
<stop offset="1" style="stop-color:rgb(0%,0%,0%);stop-opacity:0;"/>
</radialGradient>
<radialGradient id="radial2" gradientUnits="userSpaceOnUse" cx="450.908936" cy="189.579361" fx="450.908936" fy="189.579361" r="21.166656" gradientTransform="matrix(-0.000000261256,-0.117199,0.210958,-0.000000152308,-19.155178,95.392994)">
<stop offset="0" style="stop-color:rgb(0%,0%,0%);stop-opacity:0.313726;"/>
<stop offset="0.222222" style="stop-color:rgb(0%,0%,0%);stop-opacity:0.27451;"/>
<stop offset="1" style="stop-color:rgb(0%,0%,0%);stop-opacity:0;"/>
</radialGradient>
<radialGradient id="radial3" gradientUnits="userSpaceOnUse" cx="450.908936" cy="189.579361" fx="450.908936" fy="189.579361" r="21.166656" gradientTransform="matrix(0.000000261256,0.117199,-0.210958,0.000000152308,66.784725,-11.291224)">
<stop offset="0" style="stop-color:rgb(0%,0%,0%);stop-opacity:0.313726;"/>
<stop offset="0.222222" style="stop-color:rgb(0%,0%,0%);stop-opacity:0.27451;"/>
<stop offset="1" style="stop-color:rgb(0%,0%,0%);stop-opacity:0;"/>
</radialGradient>
<linearGradient id="linear0" gradientUnits="userSpaceOnUse" x1="255.323059" y1="233.5" x2="255.323044" y2="254.666656" gradientTransform="matrix(0.0200401,0,0,0.093759,18.698079,20.158175)">
<stop offset="0" style="stop-color:rgb(0%,0%,0%);stop-opacity:0.27451;"/>
<stop offset="1" style="stop-color:rgb(0%,0%,0%);stop-opacity:0;"/>
</linearGradient>
<linearGradient id="linear1" gradientUnits="userSpaceOnUse" x1="254" y1="-168.666672" x2="254" y2="233.5" gradientTransform="matrix(0.093759,0,0,0.093759,0,20.015585)">
<stop offset="0" style="stop-color:rgb(30.19608%,71.372551%,67.450982%);stop-opacity:1;"/>
<stop offset="1" style="stop-color:rgb(14.901961%,65.098041%,60.392159%);stop-opacity:1;"/>
</linearGradient>
<linearGradient id="linear2" gradientUnits="userSpaceOnUse" x1="275.166656" y1="-126.333344" x2="275.166656" y2="170" gradientTransform="matrix(0.0975887,0,0,0.0975887,-1.621245,20.539937)">
<stop offset="0" style="stop-color:rgb(87.843138%,87.843138%,87.843138%);stop-opacity:1;"/>
<stop offset="1" style="stop-color:rgb(93.333334%,93.333334%,93.333334%);stop-opacity:1;"/>
</linearGradient>
<linearGradient id="linear3" gradientUnits="userSpaceOnUse" x1="283.104187" y1="-93.509773" x2="283.104187" y2="86.406898" gradientTransform="matrix(0.093759,0,0,0.093759,1.240352,22.042083)">
<stop offset="0" style="stop-color:rgb(30.19608%,71.372551%,67.450982%);stop-opacity:1;"/>
<stop offset="1" style="stop-color:rgb(14.901961%,65.098041%,60.392159%);stop-opacity:1;"/>
</linearGradient>
</defs>
<g id="surface1">
<path style=" stroke:none;fill-rule:nonzero;fill:url(#radial0);" d="M 27.289062 42.050781 L 31.257812 42.050781 L 31.257812 40.066406 L 27.289062 40.066406 Z M 27.289062 42.050781 "/>
<path style=" stroke:none;fill-rule:nonzero;fill:url(#radial1);" d="M 20.339844 42.050781 L 16.371094 42.050781 L 16.371094 44.035156 L 20.339844 44.035156 Z M 20.339844 42.050781 "/>
<path style=" stroke:none;fill-rule:nonzero;fill:url(#radial2);" d="M 20.339844 42.050781 L 16.371094 42.050781 L 16.371094 40.066406 L 20.339844 40.066406 Z M 20.339844 42.050781 "/>
<path style=" stroke:none;fill-rule:nonzero;fill:url(#radial3);" d="M 27.289062 42.050781 L 31.257812 42.050781 L 31.257812 44.035156 L 27.289062 44.035156 Z M 27.289062 42.050781 "/>
<path style=" stroke:none;fill-rule:nonzero;fill:url(#linear0);" d="M 20.339844 41.554688 L 27.289062 41.554688 L 27.289062 44.035156 L 20.339844 44.035156 Z M 20.339844 41.554688 "/>
<path style=" stroke:none;fill-rule:nonzero;fill:url(#linear1);" d="M 23.816406 4.203125 C 34.226562 4.203125 42.667969 12.640625 42.667969 23.054688 C 42.667969 33.46875 34.226562 41.910156 23.816406 41.910156 C 13.402344 41.910156 4.960938 33.46875 4.960938 23.054688 C 4.960938 12.640625 13.402344 4.203125 23.816406 4.203125 Z M 23.816406 4.203125 "/>
<path style=" stroke:none;fill-rule:nonzero;fill:rgb(0%,0%,0%);fill-opacity:0.196078;" d="M 23.816406 41.804688 C 13.371094 41.804688 4.960938 33.394531 4.960938 22.949219 C 4.960938 22.886719 4.960938 22.828125 4.960938 22.765625 C 5.0625 33.125 13.433594 41.433594 23.816406 41.433594 C 34.199219 41.433594 42.570312 33.125 42.667969 22.765625 C 42.667969 22.828125 42.667969 22.886719 42.667969 22.949219 C 42.667969 33.394531 34.257812 41.804688 23.816406 41.804688 Z M 23.816406 41.804688 "/>
<path style=" stroke:none;fill-rule:nonzero;fill:rgb(100%,100%,100%);fill-opacity:0.392157;" d="M 23.816406 4.34375 C 13.371094 4.34375 4.960938 12.753906 4.960938 23.199219 C 4.960938 23.257812 4.960938 23.320312 4.960938 23.382812 C 5.0625 13.023438 13.433594 4.714844 23.816406 4.714844 C 34.199219 4.714844 42.570312 13.023438 42.667969 23.382812 C 42.667969 23.320312 42.667969 23.257812 42.667969 23.199219 C 42.667969 12.753906 34.257812 4.34375 23.816406 4.34375 Z M 23.816406 4.34375 "/>
<path style=" stroke:none;fill-rule:nonzero;fill:rgb(12.941177%,12.941177%,12.941177%);fill-opacity:1;" d="M 23.816406 4.0625 C 13.292969 4.0625 4.820312 12.535156 4.820312 23.054688 C 4.820312 33.574219 13.292969 42.050781 23.816406 42.050781 C 34.335938 42.050781 42.808594 33.574219 42.808594 23.054688 C 42.808594 12.535156 34.335938 4.0625 23.816406 4.0625 Z M 23.816406 4.34375 C 34.183594 4.34375 42.527344 12.6875 42.527344 23.054688 C 42.527344 33.425781 34.183594 41.769531 23.816406 41.769531 C 13.445312 41.769531 5.101562 33.425781 5.101562 23.054688 C 5.101562 12.6875 13.445312 4.34375 23.816406 4.34375 Z M 23.816406 4.34375 "/>
<path style=" stroke:none;fill-rule:nonzero;fill:url(#linear2);" d="M 25.230469 7.179688 C 33.21875 7.179688 39.691406 13.652344 39.691406 21.636719 C 39.691406 29.625 33.21875 36.097656 25.230469 36.097656 C 17.246094 36.097656 10.773438 29.625 10.773438 21.636719 C 10.773438 13.652344 17.246094 7.179688 25.230469 7.179688 Z M 25.230469 7.179688 "/>
<path style=" stroke:none;fill-rule:nonzero;fill:url(#linear3);" d="M 22.078125 13.132812 C 20.980469 13.132812 20.09375 14.019531 20.09375 15.117188 L 20.09375 28.054688 C 20.09375 29.15625 20.980469 30.039062 22.078125 30.039062 C 23.070312 30.042969 31.175781 24.609375 35.722656 21.855469 C 36.464844 21.359375 36.464844 20.863281 35.722656 20.367188 C 31.175781 17.957031 23.566406 13.175781 22.078125 13.132812 Z M 22.078125 13.132812 "/>
<path style=" stroke:none;fill-rule:nonzero;fill:rgb(100%,100%,100%);fill-opacity:0.392157;" d="M 22.078125 13.234375 C 20.980469 13.234375 20.09375 14.121094 20.09375 15.21875 L 20.09375 15.632812 C 20.09375 14.53125 20.980469 13.648438 22.078125 13.648438 C 23.566406 13.6875 31.175781 18.46875 35.722656 20.882812 C 35.992188 21.058594 36.164062 21.238281 36.238281 21.417969 C 36.367188 21.101562 36.199219 20.785156 35.722656 20.46875 C 31.175781 18.058594 23.566406 13.273438 22.078125 13.234375 Z M 22.078125 13.234375 "/>
<path style=" stroke:none;fill-rule:nonzero;fill:rgb(12.941177%,12.941177%,12.941177%);fill-opacity:1;" d="M 22.078125 12.992188 C 20.902344 12.992188 19.953125 13.945312 19.953125 15.117188 L 19.953125 28.054688 C 19.953125 29.230469 20.902344 30.179688 22.078125 30.179688 C 22.265625 30.179688 22.492188 30.085938 22.824219 29.929688 C 23.152344 29.773438 23.570312 29.546875 24.058594 29.269531 C 25.03125 28.71875 26.28125 27.953125 27.640625 27.101562 C 30.359375 25.398438 33.523438 23.351562 35.796875 21.976562 L 35.800781 21.972656 C 36.191406 21.714844 36.421875 21.429688 36.421875 21.113281 C 36.421875 20.792969 36.191406 20.511719 35.800781 20.25 L 35.792969 20.246094 L 35.789062 20.242188 C 33.519531 19.039062 30.480469 17.242188 27.820312 15.738281 C 26.492188 14.988281 25.257812 14.308594 24.261719 13.816406 C 23.761719 13.570312 23.320312 13.367188 22.957031 13.226562 C 22.589844 13.085938 22.304688 13 22.082031 12.992188 Z M 22.074219 13.273438 C 22.226562 13.277344 22.503906 13.351562 22.855469 13.488281 C 23.207031 13.625 23.640625 13.824219 24.136719 14.066406 C 25.125 14.558594 26.355469 15.234375 27.683594 15.984375 C 30.335938 17.484375 33.367188 19.277344 35.644531 20.484375 C 36 20.722656 36.140625 20.933594 36.140625 21.113281 C 36.140625 21.289062 36 21.503906 35.644531 21.738281 C 33.367188 23.117188 30.207031 25.160156 27.492188 26.863281 C 26.132812 27.710938 24.886719 28.476562 23.917969 29.027344 C 23.4375 29.300781 23.023438 29.523438 22.703125 29.675781 C 22.382812 29.824219 22.136719 29.898438 22.078125 29.898438 C 21.054688 29.898438 20.234375 29.078125 20.234375 28.054688 L 20.234375 15.117188 C 20.234375 14.09375 21.054688 13.277344 22.074219 13.273438 Z M 22.074219 13.273438 "/>
<path style=" stroke:none;fill-rule:nonzero;fill:rgb(0%,0%,0%);fill-opacity:0.235294;" d="M 36.140625 21.585938 C 36.046875 21.710938 35.910156 21.832031 35.722656 21.957031 C 31.175781 24.707031 23.070312 30.144531 22.078125 30.140625 C 20.980469 30.140625 20.09375 29.253906 20.09375 28.15625 L 20.09375 28.898438 C 20.09375 30 20.980469 30.882812 22.078125 30.882812 C 23.070312 30.886719 31.175781 25.453125 35.722656 22.703125 C 36.28125 22.328125 36.417969 21.957031 36.140625 21.585938 Z M 36.140625 21.585938 "/>
<path style=" stroke:none;fill-rule:nonzero;fill:rgb(0%,0%,0%);fill-opacity:0.235294;" d="M 25.230469 7.179688 C 17.222656 7.179688 10.773438 13.628906 10.773438 21.636719 C 10.773438 21.734375 10.773438 21.832031 10.777344 21.925781 C 10.929688 14.050781 17.316406 7.757812 25.230469 7.757812 C 33.144531 7.757812 39.535156 14.050781 39.6875 21.925781 C 39.691406 21.832031 39.691406 21.734375 39.691406 21.636719 C 39.691406 13.628906 33.242188 7.179688 25.230469 7.179688 Z M 25.230469 7.179688 "/>
<path style=" stroke:none;fill-rule:nonzero;fill:rgb(100%,100%,100%);fill-opacity:0.392157;" d="M 25.230469 36.71875 C 17.222656 36.71875 10.773438 30.269531 10.773438 22.257812 C 10.773438 22.160156 10.773438 22.066406 10.777344 21.96875 C 10.929688 29.84375 17.316406 36.136719 25.230469 36.136719 C 33.144531 36.136719 39.535156 29.84375 39.6875 21.96875 C 39.691406 22.066406 39.691406 22.160156 39.691406 22.257812 C 39.691406 30.269531 33.242188 36.71875 25.230469 36.71875 Z M 25.230469 36.71875 "/>
<path style="fill:none;stroke-width:3;stroke-linecap:round;stroke-linejoin:miter;stroke:rgb(12.941177%,12.941177%,12.941177%);stroke-opacity:1;stroke-miterlimit:4;" d="M 269.099302 -138.423979 C 354.299499 -138.423979 423.334574 -69.388905 423.334574 15.769629 C 423.334574 100.969826 354.299499 170.004901 269.099302 170.004901 C 183.940768 170.004901 114.905694 100.969826 114.905694 15.769629 C 114.905694 -69.388905 183.940768 -138.423979 269.099302 -138.423979 Z M 269.099302 -138.423979 " transform="matrix(0.093759,0,0,0.093759,0,20.158175)"/>
</g>
</svg>
